X: 40591
T: Tomorrow Morning
R: hornpipe
M: 4/4
K: Dmajor
dAFA defd|ecAc efge|fafd Bded|cdBc A2 (3ABc|
dAFA defd|ecAc efge|fafd Acec|d2 dc d2:|
afdf a2gf|gece g2 ag|fafd Bded|ceBe A2 (3gfe|
dAFA defd|ecAc efge|fafd Acec|d2 dc d2:|

